X:1
T:Title
%%score { ( 1 3 ) | ( 2 4 ) }
L:1/8
M:4/2
K:G
V:1 treble nm="Grand Piano"
V:3 treble 
V:2 bass 
V:4 bass 
V:1
 z8 z4[Q:1/4=220] [DB]4 | [CA]4 [A,CE]4 [CF]4 [CD]4 | [B,G]12 B4 | A4 d4 A4 [^CG]4 | [DF]12 [FA]4 | %5
 [GB]8 A4 z4 | [DFd]12 [DFd]4 | [D^Ge]4 [Gd]4 [EGc]4 [GB]4 |[M:6/4] [CAc]12 |[M:2/4] [CGc]4 | %10
[M:8/4] [Fd]4 [Fc]4 [DFB]4 [FA]4 | [B,GB]12 [DGB]4 | z8 [FA]8 |[M:6/4] [B,G]12 |] %14
V:2
 z8 z4 [G,,D,]4 | [G,,E,]4 G,,4 [G,,D,]4 [G,,F,]4 | [G,,G,]12 [G,D]4 | %3
 [F,A,D]4 [F,A,D]4 [E,B,E]4 [A,,A,]4 | [D,A,]12 [D,D]4 | [G,D]4 E,4 z4 G4 | D,12 C,4 | %7
 z4 D4 z4 D4 |[M:6/4] A,4 G,2- G,2 F,4 |[M:2/4] E,4 |[M:8/4] C4 A,4 z4 C4 | G,4 F,4 E,4 D,4 | %12
 C,4 A,,4 z4 C4 |[M:6/4] G,,12 |] %14
V:3
 x16 | x16 | x16 | x16 | x16 | z4 E4 [E^c]8 | x16 | x16 |[M:6/4] x12 |[M:2/4] x4 |[M:8/4] x16 | %11
 x16 | [EGA]8 D4 z4 |[M:6/4] x12 |] %14
V:4
 x16 | x16 | x16 | x16 | x16 | z8 A,8 | x16 | B,,8 E,8 |[M:6/4] x12 |[M:2/4] x4 |[M:8/4] D,8 D,8 | %11
 x16 | z8 D,8 |[M:6/4] x12 |] %14

